X:14010
T:Nonesuch
R:March
C:Trad. Playford 1651
O:England
Z:Paul Hardy's Session Tunebook 2015 (see www.paulhardy.net). Creative Commons cc by-nc-sa licenced.
M:2/2
L:1/4
Q:1/2=90
K:Ddor
A|"Dm"AF GA|"Dm"FE/F/ DA|"Dm"AF GA|"Dm"F2 DA|"F"AF GA|"Dm"FE/F/ DA|"F"AF GA|"Dm"D3 E|
"C"EC DE|"Dm"FE/F/ DE|"Am"EC DE|"Dm"F2 DE|"C"EC DE|"Dm"FE/F/ DE|"Am"EC DE|"Dm"D3 D|]

